X: 621
T: Green River
B: jims roots
M:4/4
L:1/16
Q: 1/4=100
K:G
V:1 
ef |"G" gagd egdA B2GB AGEG | DEGB "D"AGED "G"BABd "D"e2d2 |
    "G"gagd egdA B2GB AGEG | DEGB "D"AGED "G"G2GG G2DE ||
|:"G"GDGB AGEG DEGA BGBd | "D"e2d2 "G"gagd egdA B2GB |
"G"gbag egd2 gedB "D"AB"G"G4 z2:|
V:M:5/4 
"G"AGEG DEGB "D"AGED "G"G4G4 :||:deg2 gb"D"ag eg"G"de ga b4 G,2 |
% abcbook-tune_id 6298c25ddd91c6a3c255debe


% abcbook-boost 0
% abcbook-tablature 
% abcbook-transpose 
% abcbook-lastupdated 1654178398445
% abcbook-soundfonts 
% abcbook-repeats 1


